src/assets/mathwallet.svg

<?xml version="1.0" encoding="UTF-8"?>
<svg width="128px" height="128px" viewBox="0 0 128 128" version="1.1" xmlns="http://www.w3.org/2000/svg" xmlns:xlink="http://www.w3.org/1999/xlink">
    <!-- Generator: Sketch 55 (78076) - https://sketchapp.com -->
    <title>Logo_Icon_White</title>
    <desc>Created with Sketch.</desc>
    <g id="Page-1" stroke="none" stroke-width="1" fill="none" fill-rule="evenodd">
        <g id="A3" transform="translate(-216.000000, -514.000000)" fill="#FFFFFF">
            <g id="Logo_Icon" transform="translate(216.000000, 514.000000)">
                <rect id="Rectangle" opacity="0" x="0" y="0" width="128" height="128"></rect>
                <path d="M90.8470086,57.7610023 C88.5699723,55.483966 88.5699723,51.7921607 90.8470086,49.5151245 C93.1240448,47.2380882 96.8158501,47.2380882 99.0928864,49.5151245 C101.369923,51.7921607 101.369923,55.483966 99.0928864,57.7610023 C96.8158501,60.0380385 93.1240448,60.0380385 90.8470086,57.7610023 Z M71.2630488,77.344962 C69.5552716,75.6371848 69.5552716,72.8683309 71.2630488,71.1605537 C72.970826,69.4527765 75.7396799,69.4527765 77.4474571,71.1605537 C79.1552343,72.8683309 79.1552343,75.6371848 77.4474571,77.344962 C75.7396799,79.0527392 72.970826,79.0527392 71.2630488,77.344962 Z M102.185091,67.0376148 C100.477313,65.3298376 100.477313,62.5609836 102.185091,60.8532064 C103.892868,59.1454292 106.661722,59.1454292 108.369499,60.8532064 C110.077276,62.5609836 110.077276,65.3298376 108.369499,67.0376148 C106.661722,68.745392 103.892868,68.745392 102.185091,67.0376148 Z M91.8777433,77.344962 C90.1699661,75.6371848 90.1699661,72.8683309 91.8777433,71.1605537 C93.5855205,69.4527765 96.3543744,69.4527765 98.0621516,71.1605537 C99.7699288,72.8683309 99.7699288,75.6371848 98.0621516,77.344962 C96.3543744,79.0527392 93.5855205,79.0527392 91.8777433,77.344962 Z M113.523172,76.3142273 C112.384654,75.1757092 112.384654,73.3298065 113.523172,72.1912884 C114.661691,71.0527703 116.507593,71.0527703 117.646111,72.1912884 C118.78463,73.3298065 118.78463,75.1757092 117.646111,76.3142273 C116.507593,77.4527454 114.661691,77.4527454 113.523172,76.3142273 Z M103.215825,86.6215745 C102.077307,85.4830564 102.077307,83.6371538 103.215825,82.4986356 C104.354343,81.3601175 106.200246,81.3601175 107.338764,82.4986356 C108.477282,83.6371538 108.477282,85.4830564 107.338764,86.6215745 C106.200246,87.7600927 104.354343,87.7600927 103.215825,86.6215745 Z M80.5396613,68.0683495 C78.262625,65.7913132 78.262625,62.099508 80.5396613,59.8224717 C82.8166976,57.5454354 86.5085028,57.5454354 88.7855391,59.8224717 C91.0625754,62.099508 91.0625754,65.7913132 88.7855391,68.0683495 C86.5085028,70.3453858 82.8166976,70.3453858 80.5396613,68.0683495 Z M80.5396613,47.453655 C78.262625,45.1766187 78.262625,41.4848135 80.5396613,39.2077772 C82.8166976,36.9307409 86.5085028,36.9307409 88.7855391,39.2077772 C91.0625754,41.4848135 91.0625754,45.1766187 88.7855391,47.453655 C86.5085028,49.7306913 82.8166976,49.7306913 80.5396613,47.453655 Z M70.2323141,57.7610023 C67.9552778,55.483966 67.9552778,51.7921607 70.2323141,49.5151245 C72.5093503,47.2380882 76.2011556,47.2380882 78.4781919,49.5151245 C80.7552281,51.7921607 80.7552281,55.483966 78.4781919,57.7610023 C76.2011556,60.0380385 72.5093503,60.0380385 70.2323141,57.7610023 Z M49.5218081,57.7610023 C47.2447719,55.483966 47.2447719,51.7921607 49.5218081,49.5151245 C51.7988444,47.2380882 55.4906497,47.2380882 57.7676859,49.5151245 C60.0447222,51.7921607 60.0447222,55.483966 57.7676859,57.7610023 C55.4906497,60.0380385 51.7988444,60.0380385 49.5218081,57.7610023 Z M29.9378484,77.344962 C28.2300712,75.6371848 28.2300712,72.8683309 29.9378484,71.1605537 C31.6456256,69.4527765 34.4144795,69.4527765 36.1222567,71.1605537 C37.8300339,72.8683309 37.8300339,75.6371848 36.1222567,77.344962 C34.4144795,79.0527392 31.6456256,79.0527392 29.9378484,77.344962 Z M60.8598901,67.0376148 C59.1521129,65.3298376 59.1521129,62.5609836 60.8598901,60.8532064 C62.5676673,59.1454292 65.3365213,59.1454292 67.0442985,60.8532064 C68.7520757,62.5609836 68.7520757,65.3298376 67.0442985,67.0376148 C65.3365213,68.745392 62.5676673,68.745392 60.8598901,67.0376148 Z M50.5525429,77.344962 C48.8447657,75.6371848 48.8447657,72.8683309 50.5525429,71.1605537 C52.2603201,69.4527765 55.029174,69.4527765 56.7369512,71.1605537 C58.4447284,72.8683309 58.4447284,75.6371848 56.7369512,77.344962 C55.029174,79.0527392 52.2603201,79.0527392 50.5525429,77.344962 Z M10.3538886,76.3142273 C9.21537047,75.1757092 9.21537047,73.3298065 10.3538886,72.1912884 C11.4924067,71.0527703 13.3383094,71.0527703 14.4768275,72.1912884 C15.6153456,73.3298065 15.6153456,75.1757092 14.4768275,76.3142273 C13.3383094,77.4527454 11.4924067,77.4527454 10.3538886,76.3142273 Z M20.6612359,86.6215745 C19.5227177,85.4830564 19.5227177,83.6371538 20.6612359,82.4986356 C21.799754,81.3601175 23.6456566,81.3601175 24.7841747,82.4986356 C25.9226929,83.6371538 25.9226929,85.4830564 24.7841747,86.6215745 C23.6456566,87.7600927 21.799754,87.7600927 20.6612359,86.6215745 Z M61.8906248,86.6215745 C60.7521067,85.4830564 60.7521067,83.6371538 61.8906248,82.4986356 C63.029143,81.3601175 64.8750456,81.3601175 66.0135637,82.4986356 C67.1520819,83.6371538 67.1520819,85.4830564 66.0135637,86.6215745 C64.8750456,87.7600927 63.029143,87.7600927 61.8906248,86.6215745 Z M19.6305011,67.0376148 C17.9227239,65.3298376 17.9227239,62.5609836 19.6305011,60.8532064 C21.3382783,59.1454292 24.1071323,59.1454292 25.8149095,60.8532064 C27.5226867,62.5609836 27.5226867,65.3298376 25.8149095,67.0376148 C24.1071323,68.745392 21.3382783,68.745392 19.6305011,67.0376148 Z M39.2144609,68.0683495 C36.9374246,65.7913132 36.9374246,62.099508 39.2144609,59.8224717 C41.4914972,57.5454354 45.1833024,57.5454354 47.4603387,59.8224717 C49.737375,62.099508 49.737375,65.7913132 47.4603387,68.0683495 C45.1833024,70.3453858 41.4914972,70.3453858 39.2144609,68.0683495 Z M39.2144609,47.453655 C36.9374246,45.1766187 36.9374246,41.4848135 39.2144609,39.2077772 C41.4914972,36.9307409 45.1833024,36.9307409 47.4603387,39.2077772 C49.737375,41.4848135 49.737375,45.1766187 47.4603387,47.453655 C45.1833024,49.7306913 41.4914972,49.7306913 39.2144609,47.453655 Z M28.9071136,57.7610023 C26.6300774,55.483966 26.6300774,51.7921607 28.9071136,49.5151245 C31.1841499,47.2380882 34.8759552,47.2380882 37.1529914,49.5151245 C39.4300277,51.7921607 39.4300277,55.483966 37.1529914,57.7610023 C34.8759552,60.0380385 31.1841499,60.0380385 28.9071136,57.7610023 Z" id="Combined-Shape"></path>
            </g>
        </g>
    </g>
</svg>

<svg xmlns="http://www.w3.org/2000/svg" width="128" height="128" fill="#fff" fill-rule="evenodd" xmlns:v="https://vecta.io/nano"><path opacity="0" d="M0 0h128v128H0z"/><path d="M90.847 57.761a5.83 5.83 0 1 1 8.246-8.246 5.83 5.83 0 1 1-8.246 8.246zM71.263 77.345c-1.708-1.708-1.708-4.477 0-6.184s4.477-1.708 6.184 0 1.708 4.477 0 6.184-4.477 1.708-6.184 0zm30.922-10.307c-1.708-1.708-1.708-4.477 0-6.184s4.477-1.708 6.184 0 1.708 4.477 0 6.184-4.477 1.708-6.184 0zM91.878 77.345c-1.708-1.708-1.708-4.477 0-6.184s4.477-1.708 6.184 0 1.708 4.477 0 6.184-4.477 1.708-6.184 0zm21.645-1.031c-1.139-1.139-1.139-2.984 0-4.123s2.984-1.139 4.123 0 1.139 2.984 0 4.123-2.984 1.139-4.123 0zm-10.307 10.307c-1.139-1.139-1.139-2.984 0-4.123s2.984-1.139 4.123 0 1.139 2.984 0 4.123-2.984 1.139-4.123 0zM80.54 68.068a5.83 5.83 0 1 1 8.246-8.246 5.83 5.83 0 1 1-8.246 8.246zm0-20.615a5.83 5.83 0 1 1 8.246-8.246 5.83 5.83 0 1 1-8.246 8.246zM70.232 57.761a5.83 5.83 0 1 1 8.246-8.246 5.83 5.83 0 1 1-8.246 8.246zm-20.711 0a5.83 5.83 0 1 1 8.246-8.246 5.83 5.83 0 1 1-8.246 8.246zM29.938 77.345c-1.708-1.708-1.708-4.477 0-6.184s4.477-1.708 6.184 0 1.708 4.477 0 6.184-4.477 1.708-6.184 0zM60.86 67.038c-1.708-1.708-1.708-4.477 0-6.184s4.477-1.708 6.184 0 1.708 4.477 0 6.184-4.477 1.708-6.184 0zM50.553 77.345c-1.708-1.708-1.708-4.477 0-6.184s4.477-1.708 6.184 0 1.708 4.477 0 6.184-4.477 1.708-6.184 0zm-40.199-1.031c-1.139-1.139-1.139-2.984 0-4.123s2.984-1.139 4.123 0 1.139 2.984 0 4.123-2.984 1.139-4.123 0zm10.307 10.307c-1.139-1.139-1.139-2.984 0-4.123s2.984-1.139 4.123 0 1.139 2.984 0 4.123-2.984 1.139-4.123 0zm41.229 0c-1.139-1.139-1.139-2.984 0-4.123s2.984-1.139 4.123 0 1.139 2.984 0 4.123-2.984 1.139-4.123 0zm-42.26-19.584c-1.708-1.708-1.708-4.477 0-6.184s4.477-1.708 6.184 0 1.708 4.477 0 6.184-4.477 1.708-6.184 0zm19.584 1.031a5.83 5.83 0 1 1 8.246-8.246 5.83 5.83 0 1 1-8.246 8.246zm0-20.615a5.83 5.83 0 1 1 8.246-8.246 5.83 5.83 0 1 1-8.246 8.246zM28.907 57.761a5.83 5.83 0 1 1 8.246-8.246 5.83 5.83 0 1 1-8.246 8.246z"/></svg>
